X: 10186
T: Dinny O'Brien's
R: reel
M: 4/4
K: Dmixolydian
g|:"D"fd (3ddd d^cAB|"C" c2 dB "A7" cAGE|"D" D2 FD ADFD|"Em" EGAB cdeg|
"D" fdd^c d=cAB|"D" c2 dB cAGE|"D" D2 ED EGAB|"A7"cAGE "D" EDD g:|
"D"fddc defg|ad (3ddd d^cAB|"C"c2 cB cde=f|gc (3ccc "A7"gceg|
"D"fd (3ddd d^cAB|"C" c2dB cAGE|"D" D2 ED EGAB|"A7" cAGE "D" ED D2:|

